www/assets/icons/timer_3_select.svg

<svg xmlns="http://www.w3.org/2000/svg" width="24" height="24" viewBox="0 0 24 24" fill='currentColor'><path d="M20.5 11v2h-4v1H19c.83 0 1.5.68 1.5 1.5v2c0 .83-.67 1.5-1.5 1.5h-4.5v-2h4v-1H16c-.82 0-1.5-.68-1.5-1.5v-2c0-.82.68-1.5 1.5-1.5zm-17-6v3h6v2.5h-6v3h6V16h-6v3h6c1.66 0 3-1.34 3-3v-1.9a2.1 2.1 0 0 0-2.1-2.1 2.1 2.1 0 0 0 2.1-2.1V8c0-1.66-1.34-3-3-3z"/></svg>

<svg width="24" height="24" viewBox="0 0 24 24" xmlns="http://www.w3.org/2000/svg" fill='currentColor'><path d="M20.5 11V13H16.5V14H19C19.83 14 20.5 14.68 20.5 15.5V17.5C20.5 18.33 19.83 19 19 19H14.5V17H18.5V16H16C15.18 16 14.5 15.32 14.5 14.5V12.5C14.5 11.68 15.18 11 16 11H20.5ZM3.5 5V8H9.5V10.5H3.5V13.5H9.5V16H3.5V19H9.5C11.16 19 12.5 17.66 12.5 16V14.1C12.5 12.94 11.56 12 10.4 12C11.56 12 12.5 11.06 12.5 9.9V8C12.5 6.34 11.16 5 9.5 5H3.5Z"/></svg>
